symbols/web/history_toggle_off/materialsymbolsrounded/history_toggle_off_gradN25_48px.svg

<svg xmlns="http://www.w3.org/2000/svg" height="48" width="48"><path d="m25.45 23.4 6.2 6.2q.4.4.4.975T31.6 31.6q-.45.45-1 .45t-1-.45L23 25q-.2-.25-.3-.5-.1-.25-.1-.55V16q0-.65.4-1.05t1-.4q.65 0 1.05.4t.4 1.05ZM6.1 32.55q-.75-1.65-1.2-3.425-.45-1.775-.6-3.725h2.9q.05 1.55.45 2.975t1 2.775Zm-1.8-10q.15-1.9.625-3.725Q5.4 17 6.15 15.35l2.5 1.45q-.6 1.35-1 2.775Q7.25 21 7.2 22.55Zm8.6 17.9q-1.6-1.1-2.975-2.425Q8.55 36.7 7.5 35.05l2.55-1.45q.85 1.35 1.925 2.4 1.075 1.05 2.375 1.9ZM10.05 14.3l-2.5-1.45q1.05-1.6 2.4-2.95 1.35-1.35 2.95-2.4l1.45 2.55q-1.3.85-2.375 1.925Q10.9 13.05 10.05 14.3ZM22.6 43.7q-2-.15-3.775-.625T15.4 41.85l1.45-2.5q1.3.6 2.725 1t3.025.45ZM16.85 8.6 15.4 6.1q1.65-.75 3.425-1.2 1.775-.45 3.775-.6v2.85q-1.6.1-3.025.475Q18.15 8 16.85 8.6Zm8.6 35.1v-2.9q1.55-.05 2.975-.45t2.775-1l1.45 2.5q-1.65.75-3.475 1.225-1.825.475-3.725.625ZM31.2 8.6q-1.35-.6-2.775-.975Q27 7.25 25.45 7.15V4.3q1.9.15 3.725.6Q31 5.35 32.65 6.1Zm3.95 31.85L33.7 37.9q1.25-.85 2.325-1.9 1.075-1.05 1.925-2.35l2.55 1.45q-1.05 1.6-2.4 2.95-1.35 1.35-2.95 2.4Zm2.8-26.15q-.85-1.3-1.925-2.35-1.075-1.05-2.325-1.9l1.45-2.55q1.6 1.05 2.925 2.4 1.325 1.35 2.375 2.95Zm2.9 8.25q-.1-1.55-.5-3t-1-2.75l2.55-1.45q.75 1.65 1.2 3.45.45 1.8.6 3.75ZM41.9 32.6l-2.5-1.4q.6-1.35.975-2.775.375-1.425.475-3.025h2.85q-.15 2-.6 3.775-.45 1.775-1.2 3.425Z"/></svg>

<svg xmlns="http://www.w3.org/2000/svg" height="48" width="48"><path d="M25.45 23.4 31.65 29.6Q32.05 30 32.05 30.575Q32.05 31.15 31.6 31.6Q31.15 32.05 30.6 32.05Q30.05 32.05 29.6 31.6L23 25Q22.8 24.75 22.7 24.5Q22.6 24.25 22.6 23.95V16Q22.6 15.35 23 14.95Q23.4 14.55 24 14.55Q24.65 14.55 25.05 14.95Q25.45 15.35 25.45 16ZM6.1 32.55Q5.35 30.9 4.9 29.125Q4.45 27.35 4.3 25.4H7.2Q7.25 26.95 7.65 28.375Q8.05 29.8 8.65 31.15ZM4.3 22.55Q4.45 20.65 4.925 18.825Q5.4 17 6.15 15.35L8.65 16.8Q8.05 18.15 7.65 19.575Q7.25 21 7.2 22.55ZM12.9 40.45Q11.3 39.35 9.925 38.025Q8.55 36.7 7.5 35.05L10.05 33.6Q10.9 34.95 11.975 36Q13.05 37.05 14.35 37.9ZM10.05 14.3 7.55 12.85Q8.6 11.25 9.95 9.9Q11.3 8.55 12.9 7.5L14.35 10.05Q13.05 10.9 11.975 11.975Q10.9 13.05 10.05 14.3ZM22.6 43.7Q20.6 43.55 18.825 43.075Q17.05 42.6 15.4 41.85L16.85 39.35Q18.15 39.95 19.575 40.35Q21 40.75 22.6 40.8ZM16.85 8.6 15.4 6.1Q17.05 5.35 18.825 4.9Q20.6 4.45 22.6 4.3V7.15Q21 7.25 19.575 7.625Q18.15 8 16.85 8.6ZM25.45 43.7V40.8Q27 40.75 28.425 40.35Q29.85 39.95 31.2 39.35L32.65 41.85Q31 42.6 29.175 43.075Q27.35 43.55 25.45 43.7ZM31.2 8.6Q29.85 8 28.425 7.625Q27 7.25 25.45 7.15V4.3Q27.35 4.45 29.175 4.9Q31 5.35 32.65 6.1ZM35.15 40.45 33.7 37.9Q34.95 37.05 36.025 36Q37.1 34.95 37.95 33.65L40.5 35.1Q39.45 36.7 38.1 38.05Q36.75 39.4 35.15 40.45ZM37.95 14.3Q37.1 13 36.025 11.95Q34.95 10.9 33.7 10.05L35.15 7.5Q36.75 8.55 38.075 9.9Q39.4 11.25 40.45 12.85ZM40.85 22.55Q40.75 21 40.35 19.55Q39.95 18.1 39.35 16.8L41.9 15.35Q42.65 17 43.1 18.8Q43.55 20.6 43.7 22.55ZM41.9 32.6 39.4 31.2Q40 29.85 40.375 28.425Q40.75 27 40.85 25.4H43.7Q43.55 27.4 43.1 29.175Q42.65 30.95 41.9 32.6Z"/></svg>
